ligands/bidentate/en-ethylenediamine.svg

<svg height="256" viewBox="0 0 256 256" width="256" xmlns="http://www.w3.org/2000/svg"><path d="m0 0h256v256h-256z" fill="#fff"/><ellipse cx="176.6" cy="113" fill="#ff7f7f" fill-rule="evenodd" rx="25.3" ry="25.3" stroke="#ff7f7f"/><g fill="none" stroke="#000" stroke-width="2"><path d="m144.7 197.3-69.2 7.7"/><path d="m75.5 205-34.8-77"/><path d="m40.7 128 47.7-43.4"/><path d="m118 79.5 43.8 25"/><path d="m162.5 180.9 9.4-45.1"/><path d="m79 204.6-3.5.4-1.7-3.9" stroke-miterlimit="10"/><path d="m42.5 131.8-1.8-3.8 2.4-2.2" stroke-miterlimit="10"/></g><text font-family="sans-serif" font-size="40" x="147.5" y="215.7">N</text><text font-family="sans-serif" font-size="40" x="175.1" y="215.7">H</text><text font-family="sans-serif" font-size="26" x="202.7" y="231.7">2</text><text font-family="sans-serif" font-size="40" x="91.2" y="91.1">N</text><text font-family="sans-serif" font-size="40" x="91.2" y="55.9">H</text><text font-family="sans-serif" font-size="26" x="118.8" y="71.9">2</text><text x="164.6" y="133"/></svg>

<?xml version='1.0' encoding='iso-8859-1'?>
<svg version='1.1' baseProfile='full'
              xmlns='http://www.w3.org/2000/svg'
                      xmlns:rdkit='http://www.rdkit.org/xml'
                      xmlns:xlink='http://www.w3.org/1999/xlink'
                  xml:space='preserve'
width='256px' height='256px' viewBox='0 0 256 256'>
<!-- END OF HEADER -->
<rect style='opacity:1.0;fill:#FFFFFF;stroke:none' width='256.0' height='256.0' x='0.0' y='0.0'> </rect>
<ellipse cx='176.6' cy='113.0' rx='25.3' ry='25.3' class='atom-4'  style='fill:#FF7F7F;fill-rule:evenodd;stroke:#FF7F7F;stroke-width:1.0px;stroke-linecap:butt;stroke-linejoin:miter;stroke-opacity:1' />
<path class='bond-0 atom-0 atom-1' d='M 144.7,197.3 L 75.5,205.0' style='fill:none;fill-rule:evenodd;stroke:#000000;stroke-width:2.0px;stroke-linecap:butt;stroke-linejoin:miter;stroke-opacity:1' />
<path class='bond-1 atom-1 atom-2' d='M 75.5,205.0 L 40.7,128.0' style='fill:none;fill-rule:evenodd;stroke:#000000;stroke-width:2.0px;stroke-linecap:butt;stroke-linejoin:miter;stroke-opacity:1' />
<path class='bond-2 atom-2 atom-3' d='M 40.7,128.0 L 88.4,84.6' style='fill:none;fill-rule:evenodd;stroke:#000000;stroke-width:2.0px;stroke-linecap:butt;stroke-linejoin:miter;stroke-opacity:1' />
<path class='bond-3 atom-3 atom-4' d='M 118.0,79.5 L 161.8,104.5' style='fill:none;fill-rule:evenodd;stroke:#000000;stroke-width:2.0px;stroke-linecap:butt;stroke-linejoin:miter;stroke-opacity:1' />
<path class='bond-4 atom-0 atom-4' d='M 162.5,180.9 L 171.9,135.8' style='fill:none;fill-rule:evenodd;stroke:#000000;stroke-width:2.0px;stroke-linecap:butt;stroke-linejoin:miter;stroke-opacity:1' />
<path d='M 79.0,204.6 L 75.5,205.0 L 73.8,201.1' style='fill:none;stroke:#000000;stroke-width:2.0px;stroke-linecap:butt;stroke-linejoin:miter;stroke-miterlimit:10;stroke-opacity:1;' />
<path d='M 42.5,131.8 L 40.7,128.0 L 43.1,125.8' style='fill:none;stroke:#000000;stroke-width:2.0px;stroke-linecap:butt;stroke-linejoin:miter;stroke-miterlimit:10;stroke-opacity:1;' />
<text x='147.5' y='215.7' class='atom-0' style='font-size:40px;font-style:normal;font-weight:normal;fill-opacity:1;stroke:none;font-family:sans-serif;text-anchor:start;fill:#000000' >N</text>
<text x='175.1' y='215.7' class='atom-0' style='font-size:40px;font-style:normal;font-weight:normal;fill-opacity:1;stroke:none;font-family:sans-serif;text-anchor:start;fill:#000000' >H</text>
<text x='202.7' y='231.7' class='atom-0' style='font-size:26px;font-style:normal;font-weight:normal;fill-opacity:1;stroke:none;font-family:sans-serif;text-anchor:start;fill:#000000' >2</text>
<text x='91.2' y='91.1' class='atom-3' style='font-size:40px;font-style:normal;font-weight:normal;fill-opacity:1;stroke:none;font-family:sans-serif;text-anchor:start;fill:#000000' >N</text>
<text x='91.2' y='55.9' class='atom-3' style='font-size:40px;font-style:normal;font-weight:normal;fill-opacity:1;stroke:none;font-family:sans-serif;text-anchor:start;fill:#000000' >H</text>
<text x='118.8' y='71.9' class='atom-3' style='font-size:26px;font-style:normal;font-weight:normal;fill-opacity:1;stroke:none;font-family:sans-serif;text-anchor:start;fill:#000000' >2</text>
<text x='164.6' y='133.0' class='atom-4' style='font-size:40px;font-style:normal;font-weight:normal;fill-opacity:1;stroke:none;font-family:sans-serif;text-anchor:start;fill:#000000' ></text>
</svg>
